images/content/johnson-solids/triaugmented-hexagonal-prism.svg

<?xml version="1.0" encoding="UTF-8"?>
<svg xmlns="http://www.w3.org/2000/svg" xmlns:xlink="http://www.w3.org/1999/xlink" width="197pt" height="199pt" viewBox="0 0 197 199" version="1.2">
<g id="surface1">
<path style=" stroke:none;fill-rule:nonzero;fill:rgb(77.734375%,70.117188%,77.929688%);fill-opacity:1;" d="M 91.480469 166.722656 L 49.273438 214 L 29.460938 149.285156 "/>
<path style="fill:none;stroke-width:6.46;stroke-linecap:round;stroke-linejoin:round;stroke:rgb(0%,0%,0%);stroke-opacity:1;stroke-miterlimit:10;" d="M 914.804688 322.773438 L 492.734375 -150 L 294.609375 497.148438 Z M 914.804688 322.773438 " transform="matrix(0.1,0,0,-0.1,0,199)"/>
<path style=" stroke:none;fill-rule:nonzero;fill:rgb(29.296875%,52.734375%,90.625%);fill-opacity:1;" d="M 104.296875 192.359375 L 49.273438 214 L 91.480469 166.722656 "/>
<path style="fill:none;stroke-width:6.46;stroke-linecap:round;stroke-linejoin:round;stroke:rgb(0%,0%,0%);stroke-opacity:1;stroke-miterlimit:10;" d="M 1042.96875 66.40625 L 492.734375 -150 L 914.804688 322.773438 Z M 1042.96875 66.40625 " transform="matrix(0.1,0,0,-0.1,0,199)"/>
<path style="fill-rule:nonzero;fill:rgb(25.097656%,47.605896%,88.084412%);fill-opacity:1;stroke-width:6.46;stroke-linecap:round;stroke-linejoin:round;stroke:rgb(0%,0%,0%);stroke-opacity:1;stroke-miterlimit:10;" d="M 914.804688 322.773438 L 1404.335938 750.234375 L 1601.445312 552.1875 " transform="matrix(0.1,0,0,-0.1,0,199)"/>
<path style="fill-rule:nonzero;fill:rgb(25.097656%,47.605896%,88.084412%);fill-opacity:1;stroke-width:6.46;stroke-linecap:round;stroke-linejoin:round;stroke:rgb(0%,0%,0%);stroke-opacity:1;stroke-miterlimit:10;" d="M 1601.445312 552.1875 L 1042.96875 66.40625 L 914.804688 322.773438 " transform="matrix(0.1,0,0,-0.1,0,199)"/>
<path style=" stroke:none;fill-rule:nonzero;fill:rgb(74.21875%,56.054688%,64.646912%);fill-opacity:1;" d="M 91.480469 166.722656 L 29.460938 149.285156 L 66.894531 39.007812 "/>
<path style="fill:none;stroke-width:6.46;stroke-linecap:round;stroke-linejoin:round;stroke:rgb(0%,0%,0%);stroke-opacity:1;stroke-miterlimit:10;" d="M 914.804688 322.773438 L 294.609375 497.148438 " transform="matrix(0.1,0,0,-0.1,0,199)"/>
<path style=" stroke:none;fill-rule:nonzero;fill:rgb(74.21875%,56.054688%,64.646912%);fill-opacity:1;" d="M 140.433594 123.976562 L 91.480469 166.722656 L 66.894531 39.007812 "/>
<path style="fill:none;stroke-width:6.46;stroke-linecap:round;stroke-linejoin:round;stroke:rgb(0%,0%,0%);stroke-opacity:1;stroke-miterlimit:10;" d="M 1404.335938 750.234375 L 914.804688 322.773438 " transform="matrix(0.1,0,0,-0.1,0,199)"/>
<path style=" stroke:none;fill-rule:nonzero;fill:rgb(58.789062%,41.40625%,61.326599%);fill-opacity:1;" d="M 130.269531 60.5625 L 191.84375 89.644531 L 140.433594 123.976562 "/>
<path style="fill:none;stroke-width:6.46;stroke-linecap:round;stroke-linejoin:round;stroke:rgb(0%,0%,0%);stroke-opacity:1;stroke-miterlimit:10;" d="M 1302.695312 1384.375 L 1918.4375 1093.554688 L 1404.335938 750.234375 Z M 1302.695312 1384.375 " transform="matrix(0.1,0,0,-0.1,0,199)"/>
<path style=" stroke:none;fill-rule:nonzero;fill:rgb(22.093201%,42.700195%,84.959412%);fill-opacity:1;" d="M 160.144531 143.78125 L 140.433594 123.976562 L 191.84375 89.644531 "/>
<path style="fill:none;stroke-width:6.46;stroke-linecap:round;stroke-linejoin:round;stroke:rgb(0%,0%,0%);stroke-opacity:1;stroke-miterlimit:10;" d="M 1601.445312 552.1875 L 1404.335938 750.234375 L 1918.4375 1093.554688 Z M 1601.445312 552.1875 " transform="matrix(0.1,0,0,-0.1,0,199)"/>
<path style="fill-rule:nonzero;fill:rgb(74.21875%,56.054688%,64.646912%);fill-opacity:1;stroke-width:6.46;stroke-linecap:round;stroke-linejoin:round;stroke:rgb(0%,0%,0%);stroke-opacity:1;stroke-miterlimit:10;" d="M 668.945312 1599.921875 L 1302.695312 1384.375 L 1404.335938 750.234375 " transform="matrix(0.1,0,0,-0.1,0,199)"/>
<path style=" stroke:none;fill-rule:nonzero;fill:rgb(75.976562%,79.492188%,30.393982%);fill-opacity:1;" d="M 33.8125 173.316406 L 29.460938 149.285156 L 49.273438 214 "/>
<path style="fill:none;stroke-width:6.46;stroke-linecap:round;stroke-linejoin:round;stroke:rgb(0%,0%,0%);stroke-opacity:1;stroke-miterlimit:10;" d="M 338.125 256.835938 L 294.609375 497.148438 L 492.734375 -150 Z M 338.125 256.835938 " transform="matrix(0.1,0,0,-0.1,0,199)"/>
<path style="fill-rule:nonzero;fill:rgb(71.875%,71.09375%,18.188477%);fill-opacity:1;stroke-width:6.46;stroke-linecap:round;stroke-linejoin:round;stroke:rgb(0%,0%,0%);stroke-opacity:1;stroke-miterlimit:10;" d="M 149.492188 1138.984375 L 294.609375 497.148438 L 338.125 256.835938 " transform="matrix(0.1,0,0,-0.1,0,199)"/>
<path style="fill-rule:nonzero;fill:rgb(74.21875%,56.054688%,64.646912%);fill-opacity:1;stroke-width:6.46;stroke-linecap:round;stroke-linejoin:round;stroke:rgb(0%,0%,0%);stroke-opacity:1;stroke-miterlimit:10;" d="M 294.609375 497.148438 L 149.492188 1138.984375 L 668.945312 1599.921875 " transform="matrix(0.1,0,0,-0.1,0,199)"/>
<path style=" stroke:none;fill-rule:nonzero;fill:rgb(36.401367%,81.834412%,70.701599%);fill-opacity:1;" d="M 149.316406 71.976562 L 191.84375 89.644531 L 130.269531 60.5625 "/>
<path style="fill:none;stroke-width:6.46;stroke-linecap:round;stroke-linejoin:round;stroke:rgb(0%,0%,0%);stroke-opacity:1;stroke-miterlimit:10;" d="M 1493.164062 1270.234375 L 1918.4375 1093.554688 L 1302.695312 1384.375 Z M 1493.164062 1270.234375 " transform="matrix(0.1,0,0,-0.1,0,199)"/>
<path style="fill-rule:nonzero;fill:rgb(35.78949%,82.8125%,77.929688%);fill-opacity:1;stroke-width:6.46;stroke-linecap:round;stroke-linejoin:round;stroke:rgb(0%,0%,0%);stroke-opacity:1;stroke-miterlimit:10;" d="M 1302.695312 1384.375 L 668.945312 1599.921875 L 770.9375 1514.101562 " transform="matrix(0.1,0,0,-0.1,0,199)"/>
<path style="fill-rule:nonzero;fill:rgb(35.78949%,82.8125%,77.929688%);fill-opacity:1;stroke-width:6.46;stroke-linecap:round;stroke-linejoin:round;stroke:rgb(0%,0%,0%);stroke-opacity:1;stroke-miterlimit:10;" d="M 770.9375 1514.101562 L 1493.164062 1270.234375 L 1302.695312 1384.375 " transform="matrix(0.1,0,0,-0.1,0,199)"/>
<path style=" stroke:none;fill-rule:nonzero;fill:rgb(61.71875%,25.805664%,33.909607%);fill-opacity:1;" d="M 33.8125 173.316406 L 49.273438 214 L 104.296875 192.359375 "/>
<path style="fill:none;stroke-width:6.46;stroke-linecap:round;stroke-linejoin:round;stroke:rgb(0%,0%,0%);stroke-opacity:1;stroke-miterlimit:10;" d="M 338.125 256.835938 L 492.734375 -150 L 1042.96875 66.40625 Z M 338.125 256.835938 " transform="matrix(0.1,0,0,-0.1,0,199)"/>
<path style=" stroke:none;fill-rule:nonzero;fill:rgb(82.03125%,51.367188%,47.093201%);fill-opacity:1;" d="M 14.949219 85.101562 L 7.746094 27.800781 L 66.894531 39.007812 "/>
<path style="fill:none;stroke-width:6.46;stroke-linecap:round;stroke-linejoin:round;stroke:rgb(0%,0%,0%);stroke-opacity:1;stroke-miterlimit:10;" d="M 149.492188 1138.984375 L 77.460938 1711.992188 L 668.945312 1599.921875 Z M 149.492188 1138.984375 " transform="matrix(0.1,0,0,-0.1,0,199)"/>
<path style="fill-rule:nonzero;fill:rgb(71.875%,71.09375%,18.188477%);fill-opacity:1;stroke-width:6.46;stroke-linecap:round;stroke-linejoin:round;stroke:rgb(0%,0%,0%);stroke-opacity:1;stroke-miterlimit:10;" d="M 338.125 256.835938 L 173.125 984.609375 L 149.492188 1138.984375 " transform="matrix(0.1,0,0,-0.1,0,199)"/>
<path style=" stroke:none;fill-rule:nonzero;fill:rgb(0%,0%,0%);fill-opacity:1;" d="M 17.3125 100.539062 L 7.746094 27.800781 L 14.949219 85.101562 "/>
<path style="fill:none;stroke-width:6.46;stroke-linecap:round;stroke-linejoin:round;stroke:rgb(0%,0%,0%);stroke-opacity:1;stroke-miterlimit:10;" d="M 173.125 984.609375 L 77.460938 1711.992188 L 149.492188 1138.984375 Z M 173.125 984.609375 " transform="matrix(0.1,0,0,-0.1,0,199)"/>
<path style=" stroke:none;fill-rule:nonzero;fill:rgb(32.397461%,81.054688%,82.226562%);fill-opacity:1;" d="M 77.09375 47.589844 L 66.894531 39.007812 L 7.746094 27.800781 "/>
<path style="fill:none;stroke-width:6.46;stroke-linecap:round;stroke-linejoin:round;stroke:rgb(0%,0%,0%);stroke-opacity:1;stroke-miterlimit:10;" d="M 770.9375 1514.101562 L 668.945312 1599.921875 L 77.460938 1711.992188 Z M 770.9375 1514.101562 " transform="matrix(0.1,0,0,-0.1,0,199)"/>
<path style=" stroke:none;fill-rule:nonzero;fill:rgb(92.381287%,73.046875%,62.5%);fill-opacity:1;" d="M 160.144531 143.78125 L 191.84375 89.644531 L 149.316406 71.976562 "/>
<path style="fill:none;stroke-width:6.46;stroke-linecap:round;stroke-linejoin:round;stroke:rgb(0%,0%,0%);stroke-opacity:1;stroke-miterlimit:10;" d="M 1601.445312 552.1875 L 1918.4375 1093.554688 L 1493.164062 1270.234375 Z M 1601.445312 552.1875 " transform="matrix(0.1,0,0,-0.1,0,199)"/>
<path style="fill-rule:nonzero;fill:rgb(74.804688%,55.664062%,63.476562%);fill-opacity:1;stroke-width:6.46;stroke-linecap:round;stroke-linejoin:round;stroke:rgb(0%,0%,0%);stroke-opacity:1;stroke-miterlimit:10;" d="M 338.125 256.835938 L 1042.96875 66.40625 L 1601.445312 552.1875 " transform="matrix(0.1,0,0,-0.1,0,199)"/>
<path style=" stroke:none;fill-rule:nonzero;fill:rgb(74.804688%,55.664062%,63.476562%);fill-opacity:1;" d="M 160.144531 143.78125 L 149.316406 71.976562 L 33.8125 173.316406 "/>
<path style="fill:none;stroke-width:6.46;stroke-linecap:round;stroke-linejoin:round;stroke:rgb(0%,0%,0%);stroke-opacity:1;stroke-miterlimit:10;" d="M 1601.445312 552.1875 L 1493.164062 1270.234375 " transform="matrix(0.1,0,0,-0.1,0,199)"/>
<path style="fill-rule:nonzero;fill:rgb(74.804688%,55.664062%,63.476562%);fill-opacity:1;stroke-width:6.46;stroke-linecap:round;stroke-linejoin:round;stroke:rgb(0%,0%,0%);stroke-opacity:1;stroke-miterlimit:10;" d="M 770.9375 1514.101562 L 173.125 984.609375 L 338.125 256.835938 " transform="matrix(0.1,0,0,-0.1,0,199)"/>
<path style=" stroke:none;fill-rule:nonzero;fill:rgb(74.804688%,55.664062%,63.476562%);fill-opacity:1;" d="M 149.316406 71.976562 L 77.09375 47.589844 L 33.8125 173.316406 "/>
<path style="fill:none;stroke-width:6.46;stroke-linecap:round;stroke-linejoin:round;stroke:rgb(0%,0%,0%);stroke-opacity:1;stroke-miterlimit:10;" d="M 1493.164062 1270.234375 L 770.9375 1514.101562 " transform="matrix(0.1,0,0,-0.1,0,199)"/>
<path style=" stroke:none;fill-rule:nonzero;fill:rgb(63.084412%,56.639099%,76.5625%);fill-opacity:1;" d="M 77.09375 47.589844 L 7.746094 27.800781 L 17.3125 100.539062 "/>
<path style="fill:none;stroke-width:6.46;stroke-linecap:round;stroke-linejoin:round;stroke:rgb(0%,0%,0%);stroke-opacity:1;stroke-miterlimit:10;" d="M 770.9375 1514.101562 L 77.460938 1711.992188 L 173.125 984.609375 Z M 770.9375 1514.101562 " transform="matrix(0.1,0,0,-0.1,0,199)"/>
</g>
</svg>

<svg xmlns="http://www.w3.org/2000/svg" width="197pt" height="199pt" viewBox="0 0 197 199" version="1.2"><path style="stroke:none;fill-rule:nonzero;fill:#c6b3c7;fill-opacity:1" d="M91.48 166.723 49.273 214l-19.812-64.715"/><path style="fill:none;stroke-width:6.46;stroke-linecap:round;stroke-linejoin:round;stroke:#000;stroke-opacity:1;stroke-miterlimit:10" d="M914.805 322.773 492.735-150 294.608 497.148Zm0 0" transform="matrix(.1 0 0 -.1 0 199)"/><path style="stroke:none;fill-rule:nonzero;fill:#4b86e7;fill-opacity:1" d="M104.297 192.36 49.273 214l42.207-47.277"/><path style="fill:none;stroke-width:6.46;stroke-linecap:round;stroke-linejoin:round;stroke:#000;stroke-opacity:1;stroke-miterlimit:10" d="M1042.969 66.406 492.734-150l422.07 472.773Zm0 0" transform="matrix(.1 0 0 -.1 0 199)"/><path style="fill-rule:nonzero;fill:#4079e1;fill-opacity:1;stroke-width:6.46;stroke-linecap:round;stroke-linejoin:round;stroke:#000;stroke-opacity:1;stroke-miterlimit:10" d="m914.805 322.773 489.53 427.461 197.11-198.047" transform="matrix(.1 0 0 -.1 0 199)"/><path style="fill-rule:nonzero;fill:#4079e1;fill-opacity:1;stroke-width:6.46;stroke-linecap:round;stroke-linejoin:round;stroke:#000;stroke-opacity:1;stroke-miterlimit:10" d="M1601.445 552.188 1042.97 66.406 914.805 322.773" transform="matrix(.1 0 0 -.1 0 199)"/><path style="stroke:none;fill-rule:nonzero;fill:#bd8fa5;fill-opacity:1" d="m91.48 166.723-62.02-17.438L66.896 39.008"/><path style="fill:none;stroke-width:6.46;stroke-linecap:round;stroke-linejoin:round;stroke:#000;stroke-opacity:1;stroke-miterlimit:10" d="M914.805 322.773 294.609 497.148" transform="matrix(.1 0 0 -.1 0 199)"/><path style="stroke:none;fill-rule:nonzero;fill:#bd8fa5;fill-opacity:1" d="M140.434 123.977 91.48 166.723 66.895 39.008"/><path style="fill:none;stroke-width:6.46;stroke-linecap:round;stroke-linejoin:round;stroke:#000;stroke-opacity:1;stroke-miterlimit:10" d="m1404.336 750.234-489.531-427.46" transform="matrix(.1 0 0 -.1 0 199)"/><path style="stroke:none;fill-rule:nonzero;fill:#966a9c;fill-opacity:1" d="m130.27 60.563 61.574 29.082-51.41 34.332"/><path style="fill:none;stroke-width:6.46;stroke-linecap:round;stroke-linejoin:round;stroke:#000;stroke-opacity:1;stroke-miterlimit:10" d="m1302.695 1384.375 615.743-290.82-514.102-343.32Zm0 0" transform="matrix(.1 0 0 -.1 0 199)"/><path style="stroke:none;fill-rule:nonzero;fill:#386dd9;fill-opacity:1" d="m160.145 143.781-19.711-19.804 51.41-34.332"/><path style="fill:none;stroke-width:6.46;stroke-linecap:round;stroke-linejoin:round;stroke:#000;stroke-opacity:1;stroke-miterlimit:10" d="m1601.445 552.188-197.11 198.046 514.102 343.32Zm0 0" transform="matrix(.1 0 0 -.1 0 199)"/><path style="fill-rule:nonzero;fill:#bd8fa5;fill-opacity:1;stroke-width:6.46;stroke-linecap:round;stroke-linejoin:round;stroke:#000;stroke-opacity:1;stroke-miterlimit:10" d="m668.945 1599.922 633.75-215.547 101.64-634.14" transform="matrix(.1 0 0 -.1 0 199)"/><path style="stroke:none;fill-rule:nonzero;fill:#c2cb4e;fill-opacity:1" d="m33.813 173.316-4.352-24.03L49.273 214"/><path style="fill:none;stroke-width:6.46;stroke-linecap:round;stroke-linejoin:round;stroke:#000;stroke-opacity:1;stroke-miterlimit:10" d="m338.125 256.836-43.516 240.312L492.734-150Zm0 0" transform="matrix(.1 0 0 -.1 0 199)"/><path style="fill-rule:nonzero;fill:#b7b52e;fill-opacity:1;stroke-width:6.46;stroke-linecap:round;stroke-linejoin:round;stroke:#000;stroke-opacity:1;stroke-miterlimit:10" d="M149.492 1138.984 294.61 497.148l43.516-240.312" transform="matrix(.1 0 0 -.1 0 199)"/><path style="fill-rule:nonzero;fill:#bd8fa5;fill-opacity:1;stroke-width:6.46;stroke-linecap:round;stroke-linejoin:round;stroke:#000;stroke-opacity:1;stroke-miterlimit:10" d="m294.61 497.148-145.118 641.836 519.453 460.938" transform="matrix(.1 0 0 -.1 0 199)"/><path style="stroke:none;fill-rule:nonzero;fill:#5dd1b4;fill-opacity:1" d="m149.316 71.977 42.528 17.668-61.574-29.082"/><path style="fill:none;stroke-width:6.46;stroke-linecap:round;stroke-linejoin:round;stroke:#000;stroke-opacity:1;stroke-miterlimit:10" d="m1493.164 1270.234 425.274-176.68-615.743 290.821Zm0 0" transform="matrix(.1 0 0 -.1 0 199)"/><path style="fill-rule:nonzero;fill:#5bd3c7;fill-opacity:1;stroke-width:6.46;stroke-linecap:round;stroke-linejoin:round;stroke:#000;stroke-opacity:1;stroke-miterlimit:10" d="m1302.695 1384.375-633.75 215.547 101.992-85.82" transform="matrix(.1 0 0 -.1 0 199)"/><path style="fill-rule:nonzero;fill:#5bd3c7;fill-opacity:1;stroke-width:6.46;stroke-linecap:round;stroke-linejoin:round;stroke:#000;stroke-opacity:1;stroke-miterlimit:10" d="m770.938 1514.102 722.226-243.868-190.469 114.141" transform="matrix(.1 0 0 -.1 0 199)"/><path style="stroke:none;fill-rule:nonzero;fill:#9d4256;fill-opacity:1" d="M33.813 173.316 49.273 214l55.024-21.64"/><path style="fill:none;stroke-width:6.46;stroke-linecap:round;stroke-linejoin:round;stroke:#000;stroke-opacity:1;stroke-miterlimit:10" d="M338.125 256.836 492.735-150l550.234 216.406Zm0 0" transform="matrix(.1 0 0 -.1 0 199)"/><path style="stroke:none;fill-rule:nonzero;fill:#d18378;fill-opacity:1" d="M14.95 85.102 7.745 27.8l59.149 11.207"/><path style="fill:none;stroke-width:6.46;stroke-linecap:round;stroke-linejoin:round;stroke:#000;stroke-opacity:1;stroke-miterlimit:10" d="m149.492 1138.984-72.031 573.008 591.484-112.07Zm0 0" transform="matrix(.1 0 0 -.1 0 199)"/><path style="fill-rule:nonzero;fill:#b7b52e;fill-opacity:1;stroke-width:6.46;stroke-linecap:round;stroke-linejoin:round;stroke:#000;stroke-opacity:1;stroke-miterlimit:10" d="m338.125 256.836-165 727.773-23.633 154.375" transform="matrix(.1 0 0 -.1 0 199)"/><path style="stroke:none;fill-rule:nonzero;fill:#000;fill-opacity:1" d="M17.313 100.54 7.745 27.8l7.203 57.302"/><path style="fill:none;stroke-width:6.46;stroke-linecap:round;stroke-linejoin:round;stroke:#000;stroke-opacity:1;stroke-miterlimit:10" d="m173.125 984.61-95.664 727.382 72.031-573.008Zm0 0" transform="matrix(.1 0 0 -.1 0 199)"/><path style="stroke:none;fill-rule:nonzero;fill:#53cfd2;fill-opacity:1" d="m77.094 47.59-10.2-8.582L7.747 27.8"/><path style="fill:none;stroke-width:6.46;stroke-linecap:round;stroke-linejoin:round;stroke:#000;stroke-opacity:1;stroke-miterlimit:10" d="m770.938 1514.102-101.993 85.82-591.484 112.07Zm0 0" transform="matrix(.1 0 0 -.1 0 199)"/><path style="stroke:none;fill-rule:nonzero;fill:#ecba9f;fill-opacity:1" d="m160.145 143.781 31.699-54.136-42.528-17.668"/><path style="fill:none;stroke-width:6.46;stroke-linecap:round;stroke-linejoin:round;stroke:#000;stroke-opacity:1;stroke-miterlimit:10" d="m1601.445 552.188 316.993 541.367-425.274 176.68Zm0 0" transform="matrix(.1 0 0 -.1 0 199)"/><path style="fill-rule:nonzero;fill:#bf8ea2;fill-opacity:1;stroke-width:6.46;stroke-linecap:round;stroke-linejoin:round;stroke:#000;stroke-opacity:1;stroke-miterlimit:10" d="m338.125 256.836 704.844-190.43 558.476 485.781" transform="matrix(.1 0 0 -.1 0 199)"/><path style="stroke:none;fill-rule:nonzero;fill:#bf8ea2;fill-opacity:1" d="m160.145 143.781-10.829-71.804-115.504 101.34"/><path style="fill:none;stroke-width:6.46;stroke-linecap:round;stroke-linejoin:round;stroke:#000;stroke-opacity:1;stroke-miterlimit:10" d="m1601.445 552.188-108.28 718.046" transform="matrix(.1 0 0 -.1 0 199)"/><path style="fill-rule:nonzero;fill:#bf8ea2;fill-opacity:1;stroke-width:6.46;stroke-linecap:round;stroke-linejoin:round;stroke:#000;stroke-opacity:1;stroke-miterlimit:10" d="M770.938 1514.102 173.125 984.609l165-727.773" transform="matrix(.1 0 0 -.1 0 199)"/><path style="stroke:none;fill-rule:nonzero;fill:#bf8ea2;fill-opacity:1" d="M149.316 71.977 77.094 47.59 33.813 173.316"/><path style="fill:none;stroke-width:6.46;stroke-linecap:round;stroke-linejoin:round;stroke:#000;stroke-opacity:1;stroke-miterlimit:10" d="m1493.164 1270.234-722.226 243.868" transform="matrix(.1 0 0 -.1 0 199)"/><path style="stroke:none;fill-rule:nonzero;fill:#a190c3;fill-opacity:1" d="M77.094 47.59 7.746 27.8l9.566 72.74"/><path style="fill:none;stroke-width:6.46;stroke-linecap:round;stroke-linejoin:round;stroke:#000;stroke-opacity:1;stroke-miterlimit:10" d="M770.938 1514.102 77.46 1711.992l95.664-727.383Zm0 0" transform="matrix(.1 0 0 -.1 0 199)"/></svg>
